icons/svg/sport/ice_stock.svg

<svg width="580" height="580" viewBox="0 0 580 580" fill="none" xmlns="http://www.w3.org/2000/svg">
<g clip-path="url(#clip0)">
<path d="M66.2751 1.76815C24.9401 1.76815 1.7041 23.1391 1.7041 66.8041V516.927C1.7041 557.771 22.5991 579.156 63.8961 579.156H515.92C557.227 579.156 578.149 558.841 578.149 516.927V66.8041C578.149 24.2031 557.227 1.76815 514.628 1.76815C514.624 1.76815 66.1331 1.62515 66.2751 1.76815Z" fill="#111111" stroke="#EEEEEE" stroke-width="3.408"/>
<path d="M274.278 312.61C272.076 303.801 268.774 296.095 259.966 227.839C251.159 159.582 284.187 92.4262 292.994 72.6101C301.802 52.7931 286.389 43.9861 264.37 38.4821C242.351 32.9781 239.049 60.5002 239.049 60.5002C212.627 110.041 225.838 220.133 215.93 238.849C206.022 257.565 195.012 312.611 195.012 312.611C217.031 334.628 276.48 321.416 274.278 312.61Z" fill="white"/>
<path d="M412.642 425.928C412.642 424.028 412.083 422.036 411.013 419.978V419.976C402.583 403.792 362.154 383.571 307.568 372.254H307.57C279.673 365.365 273.775 346.713 272.887 335.312C267.973 343.933 214.544 354.203 193.928 333.586C193.928 361.081 139.594 372.254 139.594 372.254H139.639C87.494 383.568 51.058 403.782 43.507 419.976L42.002 468.497C42.002 492.414 124.973 511.802 227.321 511.802C329.673 511.802 412.642 492.414 412.642 468.497C412.642 466.598 412.642 427.851 412.642 425.928V425.928Z" fill="white"/>
<path d="M443.572 211.968C413.496 211.968 389.114 222.008 389.114 234.392V261.62C389.114 274.005 413.496 284.044 443.572 284.044C473.646 284.044 498.028 274.005 498.028 261.62V234.392C498.028 222.008 473.647 211.968 443.572 211.968V211.968Z" fill="white"/>
</g>
<defs>
<clipPath id="clip0">
<path d="M0 0H580V580H0V0Z" fill="white"/>
</clipPath>
</defs>
</svg>

<?xml version="1.0" encoding="UTF-8" standalone="no"?>
<!-- Created with Inkscape (http://www.inkscape.org/) -->

<svg
   xmlns:dc="http://purl.org/dc/elements/1.1/"
   xmlns:cc="http://creativecommons.org/ns#"
   xmlns:rdf="http://www.w3.org/1999/02/22-rdf-syntax-ns#"
   xmlns:svg="http://www.w3.org/2000/svg"
   xmlns="http://www.w3.org/2000/svg"
   xmlns:sodipodi="http://sodipodi.sourceforge.net/DTD/sodipodi-0.dtd"
   xmlns:inkscape="http://www.inkscape.org/namespaces/inkscape"
   version="1.0"
   width="580"
   height="580"
   id="svg2"
   sodipodi:version="0.32"
   inkscape:version="0.91 r"
   sodipodi:docname="ice_stock.svg"
   inkscape:output_extension="org.inkscape.output.svg.inkscape">
  <metadata
     id="metadata2975">
    <rdf:RDF>
      <cc:Work
         rdf:about="">
        <dc:format>image/svg+xml</dc:format>
        <dc:type
           rdf:resource="http://purl.org/dc/dcmitype/StillImage" />
        <cc:license
           rdf:resource="http://web.resource.org/cc/PublicDomain" />
        <dc:language>en</dc:language>
      </cc:Work>
    </rdf:RDF>
  </metadata>
  <sodipodi:namedview
     inkscape:window-height="739"
     inkscape:window-width="1332"
     inkscape:pageshadow="2"
     inkscape:pageopacity="0.0"
     guidetolerance="10.0"
     gridtolerance="10.0"
     objecttolerance="10.0"
     borderopacity="1.0"
     bordercolor="#666666"
     pagecolor="#ffffff"
     id="base"
     inkscape:zoom="0.65172414"
     inkscape:cx="277.37173"
     inkscape:cy="301.32419"
     inkscape:window-x="34"
     inkscape:window-y="1024"
     inkscape:current-layer="svg2"
     showgrid="false"
     inkscape:window-maximized="1" />
  <defs
     id="defs4">
    <inkscape:perspective
       sodipodi:type="inkscape:persp3d"
       inkscape:vp_x="0 : 290 : 1"
       inkscape:vp_y="0 : 1000 : 0"
       inkscape:vp_z="580 : 290 : 1"
       inkscape:persp3d-origin="290 : 193.33333 : 1"
       id="perspective2441" />
    <inkscape:perspective
       id="perspective3452"
       inkscape:persp3d-origin="30 : 20 : 1"
       inkscape:vp_z="60 : 30 : 1"
       inkscape:vp_y="0 : 1000 : 0"
       inkscape:vp_x="0 : 30 : 1"
       sodipodi:type="inkscape:persp3d" />
    <symbol
       viewBox="244.5 110 489 219.9"
       id="symbol-university">
      <path
         id="path4460"
         d="M79,43l57,119c0,0,21-96,104-96s124,106,124,106l43-133l82-17L0,17L79,43z" />
      <path
         id="path4462"
         d="M94,176l-21,39"
         stroke-width="20"
         stroke="#000000"
         fill="none" />
      <path
         id="path4464"
         d="M300,19c0,10.5-22.6,19-50.5,19S199,29.5,199,19s22.6-19,50.5-19S300,8.5,300,19z" />
      <path
         id="path4466"
         d="M112,216l-16-38L64,88c0,0-9-8-4-35s16-24,16-24"
         stroke-width="20"
         stroke="#000000"
         ill="none" />
    </symbol>
    <inkscape:perspective
       id="perspective4471"
       inkscape:persp3d-origin="372.04724 : 350.78739 : 1"
       inkscape:vp_z="744.09448 : 526.18109 : 1"
       inkscape:vp_y="0 : 1000 : 0"
       inkscape:vp_x="0 : 526.18109 : 1"
       sodipodi:type="inkscape:persp3d" />
    <inkscape:perspective
       id="perspective4668"
       inkscape:persp3d-origin="6 : 4 : 1"
       inkscape:vp_z="12 : 6 : 1"
       inkscape:vp_y="0 : 1000 : 0"
       inkscape:vp_x="0 : 6 : 1"
       sodipodi:type="inkscape:persp3d" />
  </defs>
  <g
     id="g1327">
    <path
       d="M 66.275,1.768 C 24.94,1.768 1.704,23.139 1.704,66.804 L 1.704,516.927 C 1.704,557.771 22.599,579.156 63.896,579.156 L 515.92,579.156 C 557.227,579.156 578.149,558.841 578.149,516.927 L 578.149,66.804 C 578.149,24.203 557.227,1.768 514.628,1.768 C 514.624,1.768 66.133,1.625 66.275,1.768 z "
       style="fill:#111;stroke:#eee;stroke-width:3.40799999"
       id="path1329" />
  </g>
  <path
     id="path9"
     d="m 274.27798,312.61019 c -2.202,-8.809 -5.504,-16.515 -14.312,-84.771 -8.807,-68.257 24.221,-135.412998 33.028,-155.229003 8.808,-19.817 -6.605,-28.624 -28.624,-34.128 -22.019,-5.504 -25.321,22.018 -25.321,22.018 -26.422,49.541003 -13.211,159.633003 -23.119,178.349003 -9.908,18.716 -20.918,73.762 -20.918,73.762 22.019,22.017 81.468,8.805 79.266,-0.001 z"
     inkscape:connector-curvature="0"
     style="fill:#ffffff" />
  <path
     id="path11"
     d="m 412.642,425.928 c 0,-1.9 -0.559,-3.892 -1.629,-5.95 l 0,-0.002 c -8.43,-16.184 -48.859,-36.405 -103.445,-47.722 l 0.002,0 c -27.897,-6.889 -33.795,-25.541 -34.683,-36.942 -4.914,8.621 -58.343,18.891 -78.959,-1.726 l 0,0 c 0,27.495 -54.334,38.668 -54.334,38.668 l 0.045,0 c -52.145,11.314 -88.581,31.528 -96.132,47.722 l -1.505,48.521 c 0,23.917 82.971,43.305 185.319,43.305 102.352,0 185.321,-19.388 185.321,-43.305 0,-1.899 0,-40.646 0,-42.569 z"
     inkscape:connector-curvature="0"
     style="fill:#ffffff" />
  <path
     id="path13"
     d="m 443.57165,211.96756 c -30.076,0 -54.458,10.04 -54.458,22.424 l 0,27.228 c 0,12.385 24.382,22.424 54.458,22.424 30.074,0 54.456,-10.039 54.456,-22.424 l 0,-27.228 c 0,-12.384 -24.381,-22.424 -54.456,-22.424 z"
     inkscape:connector-curvature="0"
     style="fill:#ffffff" />
</svg>
